src/status/symbolic/network-cellular-gprs-symbolic.svg

<svg version="1.1" viewBox="0 0 16 16" xmlns="http://www.w3.org/2000/svg">
 <path d="m2.285-6.61e-4s-2.285 0-2.285 2.3575v11.355c0 2.2874 2.285 2.2874 2.285 2.2874h11.429c2.2863 0 2.2863-2.2874 2.2863-2.2874v-11.426s0-2.2861-2.2863-2.2861zm3.4288 2.2861h4.5726c2.285 0 2.285 2.2848 2.285 2.2848v1.1424h-2.285v-1.1424h-4.5726v6.857h4.5726v-1.1424h-2.2863v-2.2874h4.5712v3.4285s0 2.2848-2.285 2.2848h-4.5726s-2.285 0-2.285-2.2848v-6.8556c0-2.2848 2.285-2.2848 2.285-2.2848z" color="#363636" fill="#363636" stroke-width="1.3223"/>
</svg>

<svg xmlns="http://www.w3.org/2000/svg" viewBox="0 0 16 16">
    <path fill="#050505" fill-opacity=".7" d="M2.285 0S0 0 0 2.356v11.355c0 2.287 2.285 2.287 2.285 2.287h11.429C16 16 16 13.712 16 13.712V2.286S16 0 13.714 0zm3.429 2.285h4.572c2.285 0 2.285 2.285 2.285 2.285v1.143h-2.285V4.57H5.714v6.857h4.572v-1.142H8V7.997h4.571v3.429s0 2.285-2.285 2.285H5.714s-2.285 0-2.285-2.285V4.57c0-2.284 2.285-2.284 2.285-2.284z" color="#050505"/>
</svg>
